X:669
T:Watchmaker, The
T:Niel Gow's Wife
S:Sessions
Z:Nigel Gatherer
L:1/8
M:4/4
K:Ador
cAAc  BGGB | cAAB  cdec  | cAAc  BGGB | cABG EA A2 :|
c2 ec gcec | G2 BG dGBG  | c2 ec gcec | eaag ea a2  |
geeg fd d2 | ecce  dB G2 | ABcd  e3 d | cABG EA A2 |]
